packages/form-js-viewer/src/render/components/form-fields/icons/ImagePlaceholder.svg

<svg xmlns="http://www.w3.org/2000/svg" xml:space="preserve" width="64" height="64" style="fill-rule:evenodd;clip-rule:evenodd;stroke-linejoin:round;stroke-miterlimit:2" viewBox="0 0 1280 1280"><path d="M0 0h1280v1280H0z" style="fill:#e5e9ed"/><path d="M910 410H370v470h540V410Zm-57.333 57.333v355.334H427.333V467.333h425.334Z" style="fill:#cad3db"/><path d="M810 770H480v-60l100-170 130 170 100-65v125Z" style="fill:#cad3db"/><circle cx="750" cy="550" r="50" style="fill:#cad3db" transform="translate(10 10)"/></svg>

<svg width="64px" height="64px" viewBox="0 0 1280 1280" version="1.1" xmlns="http://www.w3.org/2000/svg" xmlns:xlink="http://www.w3.org/1999/xlink" xml:space="preserve" xmlns:serif="http://www.serif.com/" style="fill-rule:evenodd;clip-rule:evenodd;stroke-linejoin:round;stroke-miterlimit:2;">
  <rect x="0" y="0" width="1280" height="1280" style="fill:rgb(229,233,237);"/>
  <path d="M910,410L370,410L370,880L910,880L910,410ZM852.667,467.333L852.667,822.667C852.667,822.667 427.333,822.667 427.333,822.667C427.333,732.29 427.333,557.71 427.333,467.333L852.667,467.333Z" style="fill:rgb(202,211,219);"/>
  <path d="M810,770L480,770L480,710L580,540L710,710L810,645L810,770Z" style="fill:rgb(202,211,219);"/>
  <g transform="matrix(1,0,0,1,10,10)">
    <circle cx="750" cy="550" r="50" style="fill:rgb(202,211,219);"/>
  </g>
</svg>
